src/topics/icons/codeception.svg

<?xml version="1.0" encoding="UTF-8" standalone="no"?>
<svg width="256px" height="190px" viewBox="0 0 256 190" version="1.1" xmlns="http://www.w3.org/2000/svg" xmlns:xlink="http://www.w3.org/1999/xlink" preserveAspectRatio="xMidYMid">
    <defs>
        <radialGradient cx="38.696568%" cy="52.9087663%" fx="38.696568%" fy="52.9087663%" r="43.7788213%" id="radialGradient-1">
            <stop stop-color="#20A4C1" offset="0%"></stop>
            <stop stop-color="#008490" offset="48.8799426%"></stop>
            <stop stop-color="#1FA4BF" offset="100%"></stop>
        </radialGradient>
    </defs>
    <g>
        <path d="M112.532,92.5602 L71.17,62.3072 L110.169,127.5402 L255.999,6.9992 L112.532,92.5602 Z M94.788,172.559 C51.836,172.559 17.017,137.74 17.017,94.788 C17.017,51.837 51.836,17.017 94.788,17.017 C113.807,17.017 131.223,23.854 144.736,35.191 L155.638,22.183 C139.16,8.351 117.935,0 94.788,0 C42.521,0 0,42.522 0,94.788 C0,147.055 42.521,189.577 94.788,189.577 C121.893,189.577 146.359,178.123 163.651,159.822 L151.314,148.171 C137.136,163.179 117.063,172.559 94.788,172.559 Z M94.788,150.0165 C64.286,150.0165 39.56,125.2905 39.56,94.7885 C39.56,64.2865 64.286,39.5595 94.788,39.5595 C108.294,39.5595 120.655,44.4235 130.251,52.4745 L138.435,42.7085 C126.616,32.7865 111.391,26.7965 94.788,26.7965 C57.297,26.7965 26.796,57.2975 26.796,94.7885 C26.796,132.2785 57.297,162.7795 94.788,162.7795 C114.23,162.7795 131.78,154.5635 144.183,141.4365 L134.902,132.6725 C124.834,143.3295 110.607,150.0165 94.788,150.0165 Z" fill="url(#radialGradient-1)"></path>
    </g>
</svg>

<svg height="190" preserveAspectRatio="xMidYMid" viewBox="0 0 256 190" width="256" xmlns="http://www.w3.org/2000/svg" xmlns:xlink="http://www.w3.org/1999/xlink"><radialGradient id="a" cx="38.696568%" cy="52.908766%" r="43.778821%"><stop offset="0" stop-color="#20a4c1"/><stop offset=".488799426" stop-color="#008490"/><stop offset="1" stop-color="#1fa4bf"/></radialGradient><path d="m112.532 92.5602-41.362-30.253 38.999 65.233 145.83-120.541zm-17.744 79.9988c-42.952 0-77.771-34.819-77.771-77.771 0-42.951 34.819-77.771 77.771-77.771 19.019 0 36.435 6.837 49.948 18.174l10.902-13.008c-16.478-13.832-37.703-22.183-60.85-22.183-52.267 0-94.788 42.522-94.788 94.788 0 52.267 42.521 94.789 94.788 94.789 27.105 0 51.571-11.454 68.863-29.755l-12.337-11.651c-14.178 15.008-34.251 24.388-56.526 24.388zm0-22.5425c-30.502 0-55.228-24.726-55.228-55.228s24.726-55.229 55.228-55.229c13.506 0 25.867 4.864 35.463 12.915l8.184-9.766c-11.819-9.922-27.044-15.912-43.647-15.912-37.491 0-67.992 30.501-67.992 67.992 0 37.49 30.501 67.991 67.992 67.991 19.442 0 36.992-8.216 49.395-21.343l-9.281-8.764c-10.068 10.657-24.295 17.344-40.114 17.344z" fill="url(#a)"/></svg>
